svgs/tubelab.svg

<svg width="192" height="192" viewBox="0 0 192 192" fill="none" xmlns="http://www.w3.org/2000/svg">
<path d="M80.4001 95.9814C80.4001 72.892 80.6374 66.0967 81.4435 66.0967C82.7038 66.0967 126.179 95.1395 126.179 95.9814C126.179 96.8233 82.7038 125.866 81.4435 125.866C80.6374 125.866 80.4001 119.071 80.4001 95.9814Z" stroke="black" stroke-width="8" stroke-linecap="round" stroke-linejoin="round"/>
<path d="M115.931 154.059C153.016 146.447 168.85 120.403 159.26 82.7929C144.679 25.6097 60.5482 18.0728 40.4063 72.1453V72.1453C38.6336 76.9041 37.6494 81.9203 37.4923 86.9962L37.3508 91.5712C35.9601 136.528 69.8894 163.509 115.931 154.059Z" stroke="black" stroke-width="8" stroke-linecap="round" stroke-linejoin="round"/>
<path d="M74.8897 169.895C47.2245 163.164 29.7591 147.229 22.2403 121.859V121.859C20.7621 116.872 20.009 111.698 20.004 106.496L20.0001 102.385C19.9531 51.8559 49.038 20.0506 95.3389 20.0001C195.645 19.8906 198.467 169.286 98.2028 171.614L92.0894 171.756C86.2995 171.89 80.517 171.265 74.8897 169.895V169.895Z" stroke="black" stroke-width="8" stroke-linecap="round" stroke-linejoin="round"/>
</svg>

<svg width="192" height="192" viewBox="0 0 192 192" fill="none" xmlns="http://www.w3.org/2000/svg"><path d="M80.4 95.981c0-23.089.237-29.884 1.043-29.884 1.26 0 44.736 29.043 44.736 29.884 0 .842-43.475 29.885-44.736 29.885-.806 0-1.043-6.795-1.043-29.885Z" stroke="#000" stroke-width="8" stroke-linecap="round" stroke-linejoin="round"/><path d="M115.931 154.059c37.085-7.612 52.919-33.656 43.329-71.266-14.581-57.183-98.712-64.72-118.854-10.648v0a46.68 46.68 0 0 0-2.914 14.851l-.141 4.575c-1.39 44.957 32.538 71.938 78.58 62.488Z" stroke="#000" stroke-width="8" stroke-linecap="round" stroke-linejoin="round"/><path d="M74.89 169.895c-27.666-6.731-45.13-22.666-52.65-48.036v0a54.242 54.242 0 0 1-2.236-15.363L20 102.385C19.953 51.855 49.038 20.051 95.34 20c100.306-.11 103.128 149.286 2.864 151.614l-6.114.142a66.232 66.232 0 0 1-17.2-1.861v0Z" stroke="#000" stroke-width="8" stroke-linecap="round" stroke-linejoin="round"/></svg>
